X:1
T:God Our Refuge
T:William Fiske Sherwin, 1875
T:God Our Refuge
T:Public Domain
T:Public Domain
C:William Fiske Sherwin, 1875
Z:Public Domain
%%score ( 1 2 ) ( 3 4 )
L:1/8
M:4/4
K:D
V:1 treble 
V:2 treble 
V:3 bass 
V:4 bass 
V:1
 [FA]4 [Fd]3 [Fc] | [GB]2 [Gd]2 [FA]2 [DF]2 | D4 [DG]3 [DF] | [DF]2 [A,E]2 [A,D]2 [CE]2 | %4
w: 1.~Come now with|joy and sing- ing,|Loud hal- le-|jahs ring- ing, Our|
w: 2.~When to this|Ref- uge fly- ing,|Turn sin- ners,|less, dy- ing, On|
w: 3.~In wak- ing|or in sleep- ing,|Bright days, or|of weep- ing, Our|
 ([DF]2 [FA]2) [Fd]3 [Ac] | [GB]2 [Gd]2 [FA]2 [DF]2 | D4 [DG]3 [DF] | [DF]2 [CE]2 D4 || %8
w: grate- * ful trib-|ute bring- ing To|our al- might-|Friend; Off- ering|
w: Christ * a- lone|re- ly- ing, No|harm can reach|there; When floods|
w: souls * are in|Thy keep- ing While|here we wait|low; In Thee|
"^Refrain" [CE]4 [CA]3 [E^G] | [DF]2 [D^G]2 [CA]2 [CE]2 | [CA]4 [Fd]3 [Ec] | %11
w: pur- est plea-|sure, To Him the|heart’s full trea-|
w: grief are dash-|ing, And waves of|sor- row splash-|
w: lone a- bid-|ing, And in Thy|love con- fid-|
 [DB]2 [Ec]2 [DB]2 [CA]2 | [Ac]4 [Ae]3 [^Gd] | [Ac]2 [EB]2 [EA]2 [DF]2 | [CE]4 [EA]3 [FB] | %15
w: sure, Whose love no|thought can mea-|sure, Whose praise shall|nev- er end.|
w: ing, Light to the|soul comes flash-|ing— God’s smile through|dark des- pair.|
w: ing, Safe when Thy|hand is guid-|ing, We’ll ev- er|glad- ly go.|
 [Ec]2 [DB]2 (C2 E2) |] %16
w: |
w: |
w: |
V:2
 x8 | x8 | D4 x4 | x8 | x8 | x8 | D4 x4 | x4 D4 || x8 | x8 | x8 | x8 | x8 | x8 | x8 | x4 A4 |] %16
w: ||lu-||||y|with|||||||||
w: ||help-||||them|of|||||||||
w: ||nights||||be-|a-|||||||||
V:3
 [D,A,]4 [D,A,]3 [D,A,] | [D,G,]2 [D,B,]2 [D,D]2 [D,A,]2 | [D,F,]4 [D,B,]3 [D,A,] | %3
w: Chorus—We sing with|ex- ul- ta- tion,|Lord God of|
 [A,,A,]2 [A,,G,]2 [A,,F,]2 [A,,A,]2 | [D,A,]4 [D,A,]3 [F,D] | [G,D]2 [G,B,]2 [D,D]2 [D,A,]2 | %6
w: our sal- va- tion;|Thou art our|sure Foun- da- tion,|
 [D,F,]4 [G,,B,]3 [D,A,] | [A,,A,]2 [A,,G,]2 [D,F,]4 || [A,,A,]4 [A,,A,]3 [C,A,] | %9
w: Our Ref- uge|ev- er- more.||
 [D,A,]2 [B,,E,]2 [A,,E,]2 [A,,A,]2 | A,4 A,3 A, | [E,^G,]2 [E,G,]2 [A,,A,]2 [A,,A,]2 | %12
w: |||
 [A,E]4 [CE]3 [B,E] | [A,E]2 [^G,D]2 [A,C]2 [D,A,]2 | [A,,A,]4 [C,A,]3 [D,A,] | %15
w: |||
 [E,A,]2 [E,^G,]2 [A,,A,]4 |] %16
w: |
V:4
 x8 | x8 | x8 | x8 | x8 | x8 | x8 | x8 || x8 | x8 | A,4 A,3 A, | x8 | x8 | x8 | x8 | x8 |] %16

